svg/timer_off_outline.svg

<svg xmlns="http://www.w3.org/2000/svg" viewBox="0 0 24 24"><path d="M12 20a7 7 0 0 1-7-7c0-1.28.35-2.5.95-3.5l9.55 9.54c-1 .61-2.22.96-3.5.96M3 4 1.75 5.27 4.5 8.03A8.9 8.9 0 0 0 3 13a9 9 0 0 0 9 9c1.84 0 3.55-.55 5-1.5l2.5 2.5 1.25-1.27L13.04 14zm8 5.44 2 2V8h-2m4-7H9v2h6m4.04 1.55-1.42 1.42A9 9 0 0 0 12 4c-1.83 0-3.53.55-4.95 1.5L8.5 6.94C9.53 6.35 10.73 6 12 6a7 7 0 0 1 7 7c0 1.27-.35 2.47-.94 3.5l1.44 1.44c.95-1.41 1.5-3.11 1.5-4.94 0-2.12-.74-4.07-1.97-5.61l1.42-1.42z"/></svg>

<?xml version="1.0" encoding="UTF-8"?><!DOCTYPE svg PUBLIC "-//W3C//DTD SVG 1.1//EN" "http://www.w3.org/Graphics/SVG/1.1/DTD/svg11.dtd"><svg xmlns="http://www.w3.org/2000/svg" xmlns:xlink="http://www.w3.org/1999/xlink" version="1.1" id="mdi-timer-off-outline" width="24" height="24" viewBox="0 0 24 24"><path d="M12,20A7,7 0 0,1 5,13C5,11.72 5.35,10.5 5.95,9.5L15.5,19.04C14.5,19.65 13.28,20 12,20M3,4L1.75,5.27L4.5,8.03C3.55,9.45 3,11.16 3,13A9,9 0 0,0 12,22C13.84,22 15.55,21.45 17,20.5L19.5,23L20.75,21.73L13.04,14L3,4M11,9.44L13,11.44V8H11M15,1H9V3H15M19.04,4.55L17.62,5.97C16.07,4.74 14.12,4 12,4C10.17,4 8.47,4.55 7.05,5.5L8.5,6.94C9.53,6.35 10.73,6 12,6A7,7 0 0,1 19,13C19,14.27 18.65,15.47 18.06,16.5L19.5,17.94C20.45,16.53 21,14.83 21,13C21,10.88 20.26,8.93 19.03,7.39L20.45,5.97L19.04,4.55Z" /></svg>
